src/icons/gravatar/user0.svg

<svg width="122" height="123" viewBox="0 0 122 123" fill="none" xmlns="http://www.w3.org/2000/svg">
<path d="M74.5328 29.733C71.919 30.4181 69.268 30.9523 66.5928 31.3331C64.8528 31.6231 63.1228 32.0031 61.3928 32.3331C60.4528 32.5131 60.1728 32.3331 60.1628 31.3331C60.1628 29.2631 60.5028 27.2131 60.6628 25.1631C60.8647 22.8068 61.3619 20.4853 62.1428 18.2531C62.625 16.8579 63.1962 15.4951 63.8528 14.173C65.3891 11.0751 67.9064 8.57196 71.0128 7.05305C72.5928 6.24305 74.2428 5.60306 75.8728 4.91305C78.4426 3.88382 80.8324 2.45263 82.9528 0.67305C83.3128 0.36305 83.7028 -0.276944 84.2428 0.133056C84.7828 0.543056 84.3128 1.03304 84.1728 1.46304C83.7016 3.08504 83.5354 4.78041 83.6828 6.46304C83.8495 9.10998 83.8662 11.7642 83.7328 14.4131C83.571 18.7614 81.9906 22.9372 79.2328 26.3031C78.0482 27.8945 76.4097 29.0902 74.5328 29.733Z" fill="#569315"/>
<path d="M82.133 4.063C82.1497 4.18577 82.1497 4.31023 82.133 4.433C82.0842 4.60876 81.9991 4.77232 81.883 4.91301C78.773 8.68301 76.603 13.083 73.773 17.043C71.203 20.643 68.463 24.123 65.593 27.493C65.2156 27.8941 64.7928 28.2499 64.333 28.553C64.2178 28.6252 64.0821 28.6575 63.9467 28.645C63.8114 28.6325 63.6839 28.5758 63.5839 28.4838C63.4839 28.3917 63.4169 28.2694 63.3933 28.1355C63.3696 28.0017 63.3906 27.8638 63.453 27.743C63.7976 27.1773 64.1854 26.639 64.613 26.133C68.255 21.9651 71.5968 17.544 74.613 12.903C75.823 11.013 76.973 9.083 78.213 7.203C78.903 6.203 79.693 5.203 80.443 4.203C80.5878 3.98854 80.7668 3.79935 80.973 3.643C81.0745 3.5831 81.188 3.54636 81.3054 3.53543C81.4227 3.5245 81.5411 3.53964 81.6519 3.57977C81.7627 3.6199 81.8633 3.68402 81.9465 3.76756C82.0297 3.8511 82.0933 3.95199 82.133 4.063Z" fill="white"/>
<path d="M61.773 28.1731C61.773 28.3231 61.773 28.4631 61.773 28.6131C61.933 30.6131 60.953 31.6731 58.943 31.6931C58.5322 31.7178 58.1248 31.6055 57.7846 31.3739C57.4444 31.1423 57.1906 30.8044 57.063 30.4131C56.733 29.5131 56.463 28.5931 56.193 27.6731C54.753 22.7931 53.653 17.8231 52.363 12.9031C52.243 12.4431 52.163 11.9731 52.083 11.4931C51.9732 10.9729 52.0676 10.4304 52.3469 9.978C52.6262 9.5256 53.0688 9.19799 53.583 9.06307C54.003 8.92307 54.433 8.82306 54.863 8.71306C55.0955 8.61963 55.3445 8.57467 55.595 8.58089C55.8454 8.58712 56.0919 8.64441 56.3194 8.74927C56.547 8.85413 56.7507 9.00434 56.9181 9.19071C57.0855 9.37707 57.2131 9.59566 57.293 9.83307C57.836 11.0442 58.2873 12.2944 58.643 13.5731C59.9452 17.8311 60.9477 22.175 61.643 26.5731C61.723 27.0831 61.753 27.5731 61.813 28.1131L61.773 28.1731Z" fill="#4C820D"/>
<path d="M101.653 115.353C99.227 117.417 96.4354 119.008 93.423 120.043C90.2073 121.251 86.8438 122.021 83.423 122.333C79.1733 122.648 74.9064 122.026 70.923 120.513C68.4003 119.575 65.9531 118.445 63.603 117.133C62.4294 116.433 61.173 115.882 59.8629 115.493C58.4608 115.129 56.9845 115.167 55.603 115.603C54.2709 116.019 52.9623 116.506 51.6829 117.063C45.4368 119.779 38.4568 120.308 31.8729 118.563C26.8958 117.455 22.1553 115.471 17.8729 112.703C13.0719 109.474 9.15608 105.094 6.48295 99.963C2.24714 92.0505 0.0218188 83.2179 0.00294981 74.243C-0.0774462 66.8003 1.48644 59.4316 4.58295 52.663C6.42732 48.4311 8.68493 44.3915 11.3229 40.603C15.91 34.2531 22.2083 29.3386 29.483 26.433C31.3554 25.6548 33.3224 25.1269 35.3329 24.863C31.8074 27.4202 28.7148 30.5263 26.173 34.063C23.5392 37.8559 21.2786 41.8947 19.423 46.123C16.3284 52.8954 14.7679 60.2677 14.8529 67.713C14.8657 76.6824 17.0914 85.51 21.3329 93.413C23.993 98.5529 27.9072 102.938 32.713 106.163C36.9946 108.935 41.7351 110.922 46.713 112.033C53.3008 113.78 60.2858 113.248 66.533 110.523C67.8222 109.965 69.1408 109.478 70.4829 109.063C71.8578 108.623 73.3307 108.592 74.7229 108.973C76.033 109.353 77.2896 109.897 78.463 110.593C80.8169 111.9 83.2635 113.033 85.783 113.983C89.7699 115.484 94.0332 116.108 98.283 115.813C99.4148 115.73 100.54 115.577 101.653 115.353Z" fill="#92AF1B"/>
<path d="M115.823 95.0631C113.735 99.387 111.251 103.508 108.403 107.373C107.283 108.983 106.103 110.533 104.873 112.063C103.911 113.273 102.832 114.385 101.653 115.383C100.537 115.607 99.4081 115.761 98.2729 115.843C94.0232 116.138 89.7598 115.514 85.7729 114.013C83.2534 113.063 80.8069 111.93 78.4529 110.623C77.2796 109.927 76.0229 109.383 74.7129 109.003C73.3267 108.615 71.8576 108.635 70.4829 109.063C69.1439 109.482 67.8287 109.972 66.5429 110.533C60.2951 113.267 53.3061 113.806 46.7129 112.063C41.735 110.952 36.9945 108.965 32.7129 106.193C27.9072 102.968 23.993 98.583 21.3329 93.4432C17.0914 85.5401 14.8656 76.7125 14.8529 67.7431C14.7679 60.2978 16.3284 52.9255 19.4229 46.1531C21.2769 41.9145 23.5374 37.8655 26.1729 34.0631C28.7199 30.5213 31.8194 27.4117 35.3529 24.8531C37.2614 24.5958 39.189 24.5088 41.1129 24.5931C46.9908 24.7938 52.7573 26.2533 58.0229 28.8731C58.6229 29.1731 59.2329 29.4331 59.8229 29.7331C60.9939 30.3209 62.2714 30.6663 63.579 30.7488C64.8866 30.8313 66.1974 30.6491 67.4329 30.2131C70.6729 29.2131 73.8529 28.0032 77.1029 27.0532C87.4129 24.0532 96.9829 25.7632 105.703 31.9232C109.674 34.9174 112.972 38.7127 115.383 43.0632C118.077 47.4422 119.884 52.3076 120.703 57.3832C121.128 60.156 121.398 62.9503 121.513 65.7532C121.922 75.8328 119.974 85.8688 115.823 95.0631Z" fill="#B0D333"/>
<path d="M107.293 88.5231C107.108 88.2912 106.996 88.0097 106.971 87.7143C106.946 87.4188 107.01 87.1226 107.153 86.8631C107.473 86.1531 107.823 85.4631 108.093 84.7331C110.558 78.2046 111.198 71.1278 109.943 64.2631C109.583 62.2631 109.123 60.2631 108.643 58.2031C108.569 57.9584 108.519 57.7073 108.493 57.4531C108.462 57.1358 108.546 56.8179 108.729 56.5573C108.913 56.2967 109.184 56.1106 109.493 56.0331C109.796 55.9424 110.121 55.9608 110.411 56.0851C110.702 56.2093 110.939 56.4316 111.083 56.7131C111.218 56.9757 111.319 57.2546 111.383 57.5431C112.438 61.3904 113.108 65.3331 113.383 69.3131C113.703 75.5302 112.563 81.736 110.053 87.4331C109.904 87.8907 109.646 88.3058 109.303 88.6431C109.168 88.777 109.007 88.881 108.829 88.9482C108.651 89.0154 108.461 89.0442 108.271 89.0329C108.081 89.0216 107.896 88.9703 107.728 88.8824C107.559 88.7946 107.411 88.6721 107.293 88.5231Z" fill="white"/>
<path d="M98.4829 35.0629C101.597 38.0028 104.205 41.4354 106.203 45.2229C106.41 45.6132 106.597 46.0137 106.763 46.4229C107.113 47.3529 106.893 48.0829 106.173 48.4229C105.989 48.5203 105.786 48.5754 105.578 48.5842C105.37 48.593 105.162 48.5553 104.971 48.4739C104.779 48.3925 104.608 48.2693 104.47 48.1135C104.332 47.9576 104.231 47.773 104.173 47.5729C103.442 46.0424 102.593 44.5713 101.633 43.1729C99.7216 40.3178 97.3923 37.766 94.7229 35.6029C94.4884 35.4229 94.2647 35.2292 94.0529 35.0229C93.7839 34.7891 93.6175 34.4589 93.5894 34.1036C93.5614 33.7482 93.6739 33.3961 93.9029 33.1229C94.0098 32.9826 94.1435 32.8649 94.2962 32.7768C94.449 32.6886 94.6177 32.6317 94.7927 32.6093C94.9676 32.587 95.1453 32.5997 95.3153 32.6467C95.4853 32.6936 95.6443 32.7739 95.7829 32.8829C96.7293 33.5502 97.6312 34.2784 98.4829 35.0629Z" fill="white"/>
<path d="M28.9828 63.463C32.1328 63.633 34.8928 64.613 36.7628 67.343C37.2574 68.0042 37.5805 68.7777 37.7033 69.5944C37.826 70.411 37.7446 71.2453 37.4663 72.0227C37.188 72.8002 36.7215 73.4966 36.1084 74.0498C35.4953 74.603 34.7547 74.9958 33.9528 75.193C32.7017 75.569 31.3826 75.6626 30.0909 75.4672C28.7991 75.2718 27.5668 74.7922 26.4828 74.063C25.4674 73.466 24.5387 72.7325 23.7228 71.883C23.188 71.3414 22.7924 70.6783 22.5698 69.9504C22.3473 69.2225 22.3045 68.4515 22.445 67.7035C22.5856 66.9554 22.9054 66.2526 23.377 65.6551C23.8485 65.0577 24.4579 64.5834 25.1528 64.273C26.3362 63.6714 27.6572 63.392 28.9828 63.463Z" fill="#FF556E"/>
<path d="M89.4831 75.153C88.4156 75.1995 87.3546 74.9643 86.4068 74.4711C85.4589 73.9778 84.6575 73.2439 84.0831 72.343C83.4568 71.4805 83.1698 70.4178 83.2768 69.3574C83.3838 68.2969 83.8772 67.313 84.663 66.593C85.9361 65.3596 87.4796 64.4407 89.1706 63.9094C90.8617 63.3782 92.6534 63.2492 94.4031 63.533C98.4031 64.153 99.4631 69.083 97.1331 71.703C96.1893 72.8043 95.0147 73.6843 93.6926 74.2805C92.3704 74.8768 90.9332 75.1746 89.4831 75.153Z" fill="#FF556E"/>
<path d="M59.8829 71.743C56.9489 71.8328 54.0456 71.1243 51.4829 69.693C50.7973 69.3165 50.1706 68.8414 49.6229 68.283C49.0716 67.7649 48.7365 67.0577 48.6846 66.303C48.6326 65.5482 48.8678 64.8018 49.3429 64.213C49.6109 63.8633 49.9562 63.5803 50.3517 63.386C50.7472 63.1917 51.1822 63.0915 51.6229 63.093C52.2666 63.0971 52.8941 63.2958 53.4229 63.663L53.5929 63.773C54.3097 64.3062 55.0973 64.737 55.9329 65.053C57.2245 65.4712 58.5753 65.6772 59.9329 65.663C61.3415 65.6495 62.7439 65.475 64.1129 65.143C65.3615 64.8537 66.5703 64.4138 67.7129 63.833C68.0894 63.6337 68.4805 63.4631 68.8829 63.323C69.2076 63.228 69.5445 63.1808 69.8829 63.183C70.399 63.1793 70.9069 63.3124 71.3549 63.5689C71.8028 63.8254 72.1748 64.196 72.4329 64.643C72.7782 65.2404 72.907 65.9385 72.7978 66.6197C72.6885 67.301 72.3477 67.9237 71.8329 68.383C71.402 68.7431 70.9284 69.0487 70.4229 69.293C67.1829 70.8967 63.618 71.7349 60.0029 71.743H59.8829Z" fill="black"/>
<path d="M40.653 64.363C43.4366 64.363 45.693 62.1065 45.693 59.323C45.693 56.5394 43.4366 54.283 40.653 54.283C37.8695 54.283 35.613 56.5394 35.613 59.323C35.613 62.1065 37.8695 64.363 40.653 64.363Z" fill="black"/>
<path d="M41.0529 57.7831C41.0529 58.1588 40.9415 58.5262 40.7327 58.8386C40.5239 59.1511 40.2272 59.3946 39.88 59.5384C39.5328 59.6822 39.1508 59.7199 38.7823 59.6465C38.4137 59.5732 38.0751 59.3923 37.8094 59.1266C37.5437 58.8608 37.3628 58.5223 37.2894 58.1537C37.2161 57.7852 37.2537 57.4031 37.3976 57.056C37.5414 56.7088 37.7849 56.412 38.0973 56.2033C38.4098 55.9945 38.7771 55.8831 39.1529 55.8831C39.656 55.8857 40.1378 56.0867 40.4935 56.4424C40.8493 56.7982 41.0503 57.2799 41.0529 57.7831Z" fill="#F7F7F7"/>
<path d="M41.6729 61.913C41.6729 62.182 41.5931 62.4449 41.4437 62.6685C41.2942 62.8922 41.0818 63.0665 40.8333 63.1694C40.5848 63.2724 40.3114 63.2993 40.0476 63.2468C39.7837 63.1944 39.5414 63.0648 39.3512 62.8746C39.161 62.6844 39.0315 62.4421 38.979 62.1783C38.9265 61.9145 38.9535 61.641 39.0564 61.3925C39.1593 61.144 39.3337 60.9316 39.5573 60.7822C39.781 60.6327 40.0439 60.553 40.3129 60.553C40.6736 60.553 41.0195 60.6963 41.2745 60.9513C41.5296 61.2064 41.6729 61.5523 41.6729 61.913Z" fill="#F7F7F7"/>
<path d="M85.4829 58.3931C85.4829 59.382 85.1897 60.3487 84.6403 61.1709C84.0909 61.9932 83.31 62.634 82.3963 63.0125C81.4827 63.3909 80.4774 63.4899 79.5075 63.297C78.5376 63.1041 77.6466 62.6279 76.9474 61.9286C76.2481 61.2293 75.7719 60.3384 75.579 59.3685C75.3861 58.3986 75.4851 57.3933 75.8635 56.4796C76.2419 55.566 76.8828 54.7851 77.7051 54.2357C78.5273 53.6863 79.494 53.3931 80.4829 53.3931C81.809 53.3931 83.0808 53.9198 84.0184 54.8575C84.9561 55.7952 85.4829 57.067 85.4829 58.3931Z" fill="black"/>
<path d="M80.883 56.8531C80.883 57.2309 80.771 57.6001 80.5611 57.9142C80.3512 58.2283 80.0529 58.4732 79.7039 58.6177C79.3549 58.7623 78.9709 58.8001 78.6004 58.7264C78.2299 58.6527 77.8895 58.4708 77.6224 58.2037C77.3553 57.9366 77.1734 57.5962 77.0997 57.2257C77.026 56.8552 77.0638 56.4712 77.2084 56.1222C77.3529 55.7732 77.5978 55.4749 77.9119 55.265C78.226 55.0551 78.5952 54.9431 78.973 54.9431C79.4796 54.9431 79.9654 55.1443 80.3236 55.5025C80.6818 55.8607 80.883 56.3465 80.883 56.8531Z" fill="#F7F7F7"/>
<path d="M81.4829 60.973C81.4829 61.242 81.4032 61.505 81.2537 61.7286C81.1043 61.9523 80.8919 62.1266 80.6434 62.2295C80.3949 62.3324 80.1214 62.3594 79.8576 62.3069C79.5938 62.2544 79.3515 62.1249 79.1613 61.9347C78.9711 61.7445 78.8415 61.5022 78.7891 61.2384C78.7366 60.9745 78.7635 60.7011 78.8665 60.4526C78.9694 60.2041 79.1437 59.9917 79.3674 59.8422C79.591 59.6928 79.854 59.613 80.1229 59.613C80.4836 59.613 80.8296 59.7563 81.0846 60.0114C81.3397 60.2664 81.4829 60.6123 81.4829 60.973Z" fill="#F7F7F7"/>
</svg>

<svg fill="none" xmlns="http://www.w3.org/2000/svg" viewBox="0 0 122 123"><path d="M74.533 29.733a70.502 70.502 0 01-7.94 1.6c-1.74.29-3.47.67-5.2 1-.94.18-1.22 0-1.23-1 0-2.07.34-4.12.5-6.17a28.223 28.223 0 011.48-6.91 34.534 34.534 0 011.71-4.08 15.68 15.68 0 017.16-7.12c1.58-.81 3.23-1.45 4.86-2.14a26.12 26.12 0 007.08-4.24c.36-.31.75-.95 1.29-.54.54.41.07.9-.07 1.33a13.652 13.652 0 00-.49 5 70.26 70.26 0 01.05 7.95 19.93 19.93 0 01-4.5 11.89 9.83 9.83 0 01-4.7 3.43z" fill="#569315"/><path d="M82.133 4.063c.017.123.017.247 0 .37a1.3 1.3 0 01-.25.48c-3.11 3.77-5.28 8.17-8.11 12.13-2.57 3.6-5.31 7.08-8.18 10.45-.377.401-.8.757-1.26 1.06a.62.62 0 01-.88-.81c.345-.566.732-1.104 1.16-1.61a117.007 117.007 0 0010-13.23c1.21-1.89 2.36-3.82 3.6-5.7.69-1 1.48-2 2.23-3a2.36 2.36 0 01.53-.56.8.8 0 011.16.42z" fill="#fff"/><path d="M61.773 28.173v.44c.16 2-.82 3.06-2.83 3.08a1.86 1.86 0 01-1.88-1.28c-.33-.9-.6-1.82-.87-2.74-1.44-4.88-2.54-9.85-3.83-14.77-.12-.46-.2-.93-.28-1.41a2.07 2.07 0 011.5-2.43c.42-.14.85-.24 1.28-.35a1.84 1.84 0 012.43 1.12 26.505 26.505 0 011.35 3.74 95.376 95.376 0 013 13c.08.51.11 1 .17 1.54l-.04.06z" fill="#4C820D"/><path d="M101.653 115.353a25.476 25.476 0 01-8.23 4.69 38.339 38.339 0 01-10 2.29 29.138 29.138 0 01-12.5-1.82 52.684 52.684 0 01-7.32-3.38 16.432 16.432 0 00-3.74-1.64 7.714 7.714 0 00-4.26.11 38.84 38.84 0 00-3.92 1.46 30.246 30.246 0 01-19.81 1.5 43.005 43.005 0 01-14-5.86 34.644 34.644 0 01-11.39-12.74 54.74 54.74 0 01-6.48-25.72 50.56 50.56 0 014.58-21.58 70.158 70.158 0 016.74-12.06 41.302 41.302 0 0118.16-14.17 23.064 23.064 0 015.85-1.57 40.731 40.731 0 00-9.16 9.2 71.567 71.567 0 00-6.75 12.06 50.56 50.56 0 00-4.57 21.59 54.51 54.51 0 006.48 25.7 34.392 34.392 0 0011.38 12.75 42.99 42.99 0 0014 5.87 30.207 30.207 0 0019.82-1.51 38.797 38.797 0 013.95-1.46 7.455 7.455 0 014.24-.09c1.31.38 2.567.924 3.74 1.62a55.193 55.193 0 007.32 3.39 29.65 29.65 0 0012.5 1.83 27.136 27.136 0 003.37-.46z" fill="#92AF1B"/><path d="M115.823 95.063a77.733 77.733 0 01-7.42 12.31c-1.12 1.61-2.3 3.16-3.53 4.69a23.56 23.56 0 01-3.22 3.32 27.097 27.097 0 01-3.38.46 29.65 29.65 0 01-12.5-1.83 55.199 55.199 0 01-7.32-3.39 16.147 16.147 0 00-3.74-1.62 7.463 7.463 0 00-4.23.06 38.903 38.903 0 00-3.94 1.47 30.207 30.207 0 01-19.83 1.53 42.99 42.99 0 01-14-5.87 34.392 34.392 0 01-11.38-12.75 54.51 54.51 0 01-6.48-25.7 50.56 50.56 0 014.57-21.59 71.576 71.576 0 016.75-12.09 40.73 40.73 0 019.18-9.21 32.472 32.472 0 015.76-.26c5.878.2 11.644 1.66 16.91 4.28.6.3 1.21.56 1.8.86a9.74 9.74 0 007.61.48c3.24-1 6.42-2.21 9.67-3.16 10.31-3 19.88-1.29 28.6 4.87a35.509 35.509 0 019.68 11.14 39.265 39.265 0 015.32 14.32 75.74 75.74 0 01.81 8.37 64.84 64.84 0 01-5.69 29.31z" fill="#B0D333"/><path d="M107.293 88.523a1.5 1.5 0 01-.14-1.66c.32-.71.67-1.4.94-2.13a38.4 38.4 0 001.85-20.47c-.36-2-.82-4-1.3-6.06a3.994 3.994 0 01-.15-.75 1.334 1.334 0 011-1.42 1.349 1.349 0 011.59.68c.135.263.236.542.3.83a60.197 60.197 0 012 11.77 39.86 39.86 0 01-3.33 18.12 3.002 3.002 0 01-.75 1.21 1.35 1.35 0 01-2.01-.12zm-8.81-53.46a38.99 38.99 0 017.72 10.16c.207.39.394.79.56 1.2.35.93.13 1.66-.59 2a1.397 1.397 0 01-1.703-.31 1.405 1.405 0 01-.297-.54 32.594 32.594 0 00-2.54-4.4 34.311 34.311 0 00-6.91-7.57 7.541 7.541 0 01-.67-.58 1.36 1.36 0 01-.15-1.9 1.33 1.33 0 011.88-.24 26.669 26.669 0 012.7 2.18z" fill="#fff"/><path d="M28.983 63.463c3.15.17 5.91 1.15 7.78 3.88a5 5 0 01-2.81 7.85 8.83 8.83 0 01-7.47-1.13 12.874 12.874 0 01-2.76-2.18 4.711 4.711 0 011.43-7.61 7.56 7.56 0 013.83-.81zm60.5 11.69a6.09 6.09 0 01-5.4-2.81 4.34 4.34 0 01.58-5.75 11.38 11.38 0 019.74-3.06c4 .62 5.06 5.55 2.73 8.17a9.88 9.88 0 01-7.65 3.45z" fill="#FF556E"/><path d="M59.883 71.743a16.21 16.21 0 01-8.4-2.05 7.998 7.998 0 01-1.86-1.41 3 3 0 01-.28-4.07 2.86 2.86 0 012.28-1.12 3.192 3.192 0 011.8.57l.17.11a9.625 9.625 0 002.34 1.28c1.291.418 2.642.624 4 .61a18.487 18.487 0 004.18-.52 15.83 15.83 0 003.6-1.31c.376-.2.768-.37 1.17-.51a3.48 3.48 0 011-.14 2.92 2.92 0 012.55 1.46 3 3 0 01-.6 3.74 6.84 6.84 0 01-1.41.91 23.609 23.609 0 01-10.42 2.45h-.12zm-19.23-7.38a5.04 5.04 0 100-10.08 5.04 5.04 0 000 10.08z" fill="#000"/><path d="M41.053 57.783a1.9 1.9 0 11-1.9-1.9 1.91 1.91 0 011.9 1.9zm.62 4.13a1.36 1.36 0 11-2.72 0 1.36 1.36 0 012.72 0z" fill="#F7F7F7"/><path d="M85.483 58.393a5 5 0 11-10 0 5 5 0 0110 0z" fill="#000"/><path d="M80.883 56.853a1.91 1.91 0 11-3.82 0 1.91 1.91 0 013.82 0zm.6 4.12a1.36 1.36 0 11-2.719 0 1.36 1.36 0 012.719 0z" fill="#F7F7F7"/></svg>
